svgs/thin/phone.svg

<svg xmlns="http://www.w3.org/2000/svg" viewBox="0 0 512 512"><!--! Font Awesome Pro 6.3.0 by @fontawesome - https://fontawesome.com License - https://fontawesome.com/license (Commercial License) Copyright 2023 Fonticons, Inc. --><path d="M493.1 351.2L384.6 304.7c-12.78-5.531-27.78-1.806-36.47 8.975l-44.08 53.8c-69.25-34-125.5-90.3-159.5-159.5l53.83-44.06C209.1 155.1 212.8 140.2 207.3 127.5L160.8 18.92c-6.094-13.91-21.13-21.53-35.82-18.12L24.22 24.05C9.969 27.3 0 39.85 0 54.5c0 252.3 205.2 457.5 457.5 457.5c14.67 0 27.19-9.968 30.46-24.22l23.25-100.8C514.6 372.4 506.1 357.2 493.1 351.2zM495.6 383.4l-23.25 100.8C470.8 491.1 464.6 496 457.5 496C214 496 16 297.9 16 54.5c0-7.156 4.859-13.25 11.81-14.88l100.8-23.25c7.203-1.656 14.61 2.125 17.58 8.938l46.52 108.5c2.66 6.244 .7871 13.5-4.406 17.75l-63.53 52c62.32 133.5 168.7 176.7 183.8 183.8l52.02-63.53c4.219-5.25 11.52-7.062 17.73-4.375l108.5 46.5C493.5 368.9 497.3 376.3 495.6 383.4z"/></svg>

<svg xmlns="http://www.w3.org/2000/svg" viewBox="0 0 512 512"><!-- Font Awesome Pro 6.0.0-alpha2 by @fontawesome - https://fontawesome.com License - https://fontawesome.com/license (Commercial License) --><path d="M493.094 351.248L384.609 304.748C371.828 299.217 356.813 302.936 348.125 313.717L304.078 367.529C234.828 333.529 178.531 277.248 144.547 208.029L198.375 163.934C209.125 155.152 212.797 140.277 207.359 127.496L160.828 18.934C154.734 5.027 139.656 -2.598 124.969 0.809L24.219 24.059C9.969 27.309 0 39.84 0 54.496C0 306.779 205.234 512 457.484 512C472.156 512 484.688 502.031 487.953 487.781L511.203 387C514.578 372.406 507 357.248 493.094 351.248ZM495.609 383.406L472.359 484.188C470.766 491.125 464.641 496 457.484 496C214.047 496 16 297.936 16 54.496C16 47.34 20.859 41.246 27.812 39.621L128.562 16.371C135.766 14.715 143.172 18.496 146.141 25.309L192.656 133.809C195.316 140.053 193.443 147.307 188.25 151.559L124.719 203.561C187.035 337.045 293.375 380.289 308.531 387.344L360.547 323.811C364.766 318.561 372.062 316.748 378.281 319.436L486.766 365.936C493.547 368.875 497.25 376.281 495.609 383.406Z"/></svg>
